flaticon/productivity/smartphone-4.svg

<svg xmlns="http://www.w3.org/2000/svg" width="32" height="32" viewBox="0 0 24 24">
    <path d="M 10.15625 20.636719 L 13.984375 20.636719 L 13.984375 21.660156 L 10.15625 21.660156 Z M 10.15625 20.636719"/>
    <path d="M 4.328125 0 L 4.328125 24 L 19.671875 24 L 19.671875 0 Z M 18.652344 1.019531 L 18.652344 18.226562 L 5.347656 18.226562 L 5.347656 1.019531 Z M 5.347656 22.980469 L 5.347656 19.25 L 18.652344 19.25 L 18.652344 22.980469 Z M 5.347656 22.980469"/>
    <path d="M 11.773438 15.910156 L 12 15.910156 C 12.8125 15.910156 16.601562 9.585938 16.601562 7.660156 C 16.601562 5.125 14.539062 3.058594 12 3.058594 C 9.460938 3.058594 7.398438 5.125 7.398438 7.660156 C 7.398438 10.160156 11.582031 15.699219 11.625 15.746094 Z M 12 4.082031 C 13.972656 4.082031 15.582031 5.6875 15.582031 7.660156 C 15.582031 9.25 13.078125 13.054688 12.003906 14.546875 C 10.621094 12.617188 8.417969 9.128906 8.417969 7.660156 C 8.417969 5.6875 10.023438 4.082031 12 4.082031 Z M 12 4.082031"/>
    <path d="M 14.53125 7.8125 C 14.53125 6.417969 13.394531 5.28125 12 5.28125 C 10.605469 5.28125 9.46875 6.417969 9.46875 7.8125 C 9.46875 9.207031 10.605469 10.34375 12 10.34375 C 13.394531 10.34375 14.53125 9.207031 14.53125 7.8125 Z M 12 9.320312 C 11.167969 9.320312 10.492188 8.644531 10.492188 7.8125 C 10.492188 6.980469 11.167969 6.304688 12 6.304688 C 12.832031 6.304688 13.507812 6.980469 13.507812 7.8125 C 13.507812 8.644531 12.832031 9.320312 12 9.320312 Z M 12 9.320312"/>
</svg>

<svg xmlns="http://www.w3.org/2000/svg" width="32" height="32" viewBox="0 0 24 24">
    <path d="M10.156 20.637h3.828v1.023h-3.828zm0 0"/>
    <path d="M4.328 0v24h15.344V0zm14.324 1.02v17.207H5.348V1.02zM5.348 22.98v-3.73h13.304v3.73zm0 0"/>
    <path d="M11.773 15.91H12c.813 0 4.602-6.324 4.602-8.25A4.607 4.607 0 0 0 12 3.06 4.607 4.607 0 0 0 7.398 7.66c0 2.5 4.184 8.04 4.227 8.086zM12 4.082a3.586 3.586 0 0 1 3.582 3.578c0 1.59-2.504 5.395-3.578 6.887-1.383-1.93-3.586-5.418-3.586-6.887A3.583 3.583 0 0 1 12 4.082zm0 0"/>
    <path d="M14.531 7.813A2.536 2.536 0 0 0 12 5.28a2.536 2.536 0 0 0-2.531 2.532A2.536 2.536 0 0 0 12 10.342a2.536 2.536 0 0 0 2.531-2.53zM12 9.32a1.509 1.509 0 0 1 0-3.015 1.509 1.509 0 0 1 0 3.015zm0 0"/>
</svg>
